!!!OTL: Waise und Stiefmutter Morgens in aller Frueh',
!!!ARE: Europa, Osteuropa, Ungarn
!!!YOR: 5, S. 300
!!    ????
!!!SCT: Q1116G
!!!YEM: Copyright 1995, estate of Helmut Schaffrath.
**kern
*ICvox
*Ivox
*M3/4
*k[f#]
*G:
=1
{4.g
8g
4g
=2
4g
4f#
4g
=3
2a}
{4d
=4
4.a
8a
4a
=5
4a
4g
4a
=6
2b}
{4dd
=7
4dd
4b
4b
=8
4b
4a
4dd
=9
2cc
4b
=10
2a}
{4d
=11
2g
4b
=12
4dd
4cc
4a
=13
2.g}
==
!!!AGN: ???
!! Melodievergleich zu Q0116, anderes Lied.
!!!ONB: ESAC (Essen Associative Code) Database: BALLADE
!!!AMT: simple triple
!!!AIN: vox
!!!EED: Helmut Schaffrath
!!!EEV: 1.0
*-
